X: 4
T: Paddy O'Rafferty
R: jig
M: 6/8
L: 1/8
K: Gmaj
|:D|GAB D2G|GAB AGE|GAB D2E|GAG GED|
GAB D2E|GAB d2e|dBB AGA|BGF G2:|
|:B|dBB d2B|dBB A2B|dBB dBB|~G3 GED|
dBB d2B|dBd g2e|dAB AGA|BGF G2:|


Tune 741	Setting 3905

